src/Widgets/SectionWidget/thumbnail.svg

<svg xmlns="http://www.w3.org/2000/svg" fill="none" viewBox="0 0 150 100"><g fill="#AAA" fill-opacity=".75" clip-path="url(#a)"><path d="M131.64 9H19a5 5 0 0 0-5 5v71.19a5 5 0 0 0 5 5h112.64a5 5 0 0 0 5-5V14a5 5 0 0 0-5-5" opacity=".55"/><path d="M58.55 9h73.09c2.76 0 5 2.24 5 5v71.19c0 2.76-2.24 5-5 5H26.36z" opacity=".55"/><path d="M78.55 9h53.09c2.76 0 5 2.24 5 5v71.19c0 2.76-2.24 5-5 5H46.36z" opacity=".55"/><path d="M98.55 9h33.09c2.76 0 5 2.24 5 5v71.19c0 2.76-2.24 5-5 5H66.36z"/></g><defs><clipPath id="a"><path fill="#fff" d="M14 9h122.64v81.19H14z"/></clipPath></defs></svg>

<svg viewBox="0 0 150 100" fill="none" xmlns="http://www.w3.org/2000/svg">
<g id="section">
<g id="Ebene_1" clip-path="url(#clip0_5_216)">
<g id="Group" opacity="0.55">
<path id="Vector" d="M131.64 9H19C16.2386 9 14 11.2386 14 14V85.19C14 87.9514 16.2386 90.19 19 90.19H131.64C134.401 90.19 136.64 87.9514 136.64 85.19V14C136.64 11.2386 134.401 9 131.64 9Z" fill="#AAAAAA" fill-opacity="0.75"/>
</g>
<path id="Vector_2" opacity="0.55" d="M58.55 9H131.64C134.4 9 136.64 11.24 136.64 14V85.19C136.64 87.95 134.4 90.19 131.64 90.19H26.36L58.55 9Z" fill="#AAAAAA" fill-opacity="0.75"/>
<path id="Vector_3" opacity="0.55" d="M78.55 9H131.64C134.4 9 136.64 11.24 136.64 14V85.19C136.64 87.95 134.4 90.19 131.64 90.19H46.36L78.55 9Z" fill="#AAAAAA" fill-opacity="0.75"/>
<path id="Vector_4" d="M98.55 9H131.64C134.4 9 136.64 11.24 136.64 14V85.19C136.64 87.95 134.4 90.19 131.64 90.19H66.36L98.55 9Z" fill="#AAAAAA" fill-opacity="0.75"/>
</g>
</g>
<defs>
<clipPath id="clip0_5_216">
<rect width="122.64" height="81.19" fill="white" transform="translate(14 9)"/>
</clipPath>
</defs>
</svg>
